X: 162
T: Aşağıdan Gelir Eli Develi
C: Muzaffer Sarısözen
O: Turkey
F: http://compmusic.upf.edu/node/140
N: tahir--turku--devrihindi--asagidan_gelir--sivas
N: makam= tahir
N: form= turku
N: usul= devrihindi = 7/4
M: 7/4
L: 1/16
K: C _2/4B ^3/4f  
Q: 1/4=114
%%MIDI tuningsystem comma53
z2 {g}fg a2 a2 ac' ba2g  | {f}ag af ge2d da gf {a}g2  | 
w:  *  A şa ğı dan  ge *  lir   |  *  e *  li  *  de *  *  ve *  li    | 
z2 {g}fg a2 a2 ac' ba2g  | {f}ag af ge2d da gf {a}g2  | 
w:  *  A şa ğı dan  ge *  lir   |  *  e *  li  *  de *  *  ve *  li    | 
fa/g/ af ge ed dg ge2d  | d2 ec dB {d}c2 d2 ec {e}d2  | 
w:  De *  *  ve *  si *  nin  *  boy *  nu   |  al tun  *  lâ *  *  *  le li    | 
d2 ec cB BA Ad cB cB  | AB cd cB2A cB A4  | 
w:  De ve *  si *  nin  *  boy *  nu   |  al *  tun  *  lâ *  *  le *  li    | 
z2 {g}fg a2 a2 ac' ba2g  | {f}ag af ge2d da gf {a}g2  | 
w:  *  Kız  ge lin_ o la *  lı   |  *  bur *  nun  *  ha *  *  va *  lı    | 
z2 {g}fg a2 a2 ac' ba2g  | {f}ag af ge2d da gf {a}g2  | 
w:  *  Kız  ge lin_ o la *  lı   |  *  bur *  nun  *  ha *  *  va *  lı    | 
fa/g/ af ge ed dg ge2d  | d2 ec dB {d}c2 d2 ec {e}d2  | 
w:  Ben  *  *  se *  ni  *  kız_ *  i *  ken   |  se ven_ *  oğ *  *  *  la nım    | 
d2 ec cB BA Ad cB cB  | AG cd cB2A cB A4  | 
w:  Ben  se *  ni  *  kız_ *  i *  ken   |  se *  ven_ *  oğ *  *  la *  nım    | 
z2 cd e2 ed d2 ge2d  | ce/d/ ec c4 d2 ec {e}d2  | \
w:  Kon ma  bül bül  *  kon ma   |  a *  *  ğaç  *  da lı na    | 
ce/d/ ec cB BA Ad cB2A  | 
w:  Se *  *  ni  *  de  *  vu *  rur *  lar   | 
AG cd c{c}B2A c{d}B A4  | z2 cd e2 ed d2 ge2d  | \
w:  yâ *  rin  *  yo *  *  *  lu *  *  na    |  Kon ma  bül bül  *  kon ma   | 
ce/d/ ec c4 d2 ec {e}d2  | 
w:  a *  *  ğaç  *  da lı na    | 
ce/d/ ec cB BA Ad cB2A  | AG cd c{c}B2A c{d}B A4  | 
w:  Se *  *  ni  *  de  *  vu *  rur *  lar   |  yâ *  rin  *  yo *  *  *  lu *  *  na    | 
z2 {g}fg a2 a2 ac' ba2g  | {f}ag af ge2d da gf {a}g2  | 
w:  *  A şa ğı dan  ge *  lir   |  *  e *  li  *  de *  *  ve *  li    | 
z2 {g}fg a2 a2 ac' ba2g  | {f}ag af ge2d da gf {a}g2  | 
w:  *  A şa ğı dan  ge *  lir   |  *  e *  li  *  de *  *  ve *  li    | 
fa/g/ af ge ed dg ge2d  | d2 ec dB {d}c2 d2 ec {e}d2  | 
w:  De *  *  ve *  si *  nin  *  boy *  nu   |  al tun  *  lâ *  *  *  le li    | 
d2 ec cB BA Ad cB cB  | AB cd cB2A cB A4  | 
w:  De ve *  si *  nin  *  boy *  nu   |  al *  tun  *  lâ *  *  le *  li    | 
z2 {g}fg a2 a2 ac' ba2g  | {f}ag af ge2d da gf {a}g2  | 
w:  *  Kız  ge lin_ o la *  lı   |  *  bur *  nun  *  ha *  *  va *  lı    | 
z2 {g}fg a2 a2 ac' ba2g  | {f}ag af ge2d da gf {a}g2  | 
w:  *  Kız  ge lin_ o la *  lı   |  *  bur *  nun  *  ha *  *  va *  lı    | 
fa/g/ af ge ed dg ge2d  | d2 ec dB {d}c2 d2 ec {e}d2  | 
w:  Ben  *  *  se *  ni  *  kız_ *  i *  ken   |  se ven_ *  oğ *  *  *  la nım    | 
d2 ec cB BA Ad cB cB  | AG cd cB2A cB A4  | 
w:  Ben  se *  ni  *  kız_ *  i *  ken   |  se *  ven_ *  oğ *  *  la *  nım    | 
z2 cd e2 ed d2 ge2d  | ce/d/ ec c4 d2 ec {e}d2  | \
w:  Kon ma  bül bül  *  kon ma   |  a *  *  ğaç  *  da lı na    | 
ce/d/ ec cB BA Ad cB2A  | 
w:  Se *  *  ni  *  de  *  vu *  rur *  lar   | 
AG cd c{c}B2A c{d}B A4  | z2 cd e2 ed d2 ge2d  | \
w:  yâ *  rin  *  yo *  *  *  lu *  *  na    |  Kon ma  bül bül  *  kon ma   | 
ce/d/ ec c4 d2 ec {e}d2  | 
w:  a *  *  ğaç  *  da lı na    | 
ce/d/ ec cB BA Ad cB2A  | AG cd c{c}B2A c{d}B A4  | 
w:  Se *  *  ni  *  de  *  vu *  rur *  lar   |  yâ *  rin  *  yo *  *  *  lu *  *  na    | 
|


